X: 1
T: the London Clog
C:
R: reel
S: https://irishflute.podbean.com/ ("Here it is written out badly:")
Z: 2021 John Chambers <jc:trillian.mit.edu>
N: It's a rather poorly handwritten image, and a good example of why ABC was invented.
N: There are several cases of letter names added above or below notes to help the reader.
N: The sharps in the 2nd strain were added to match the recordings; they weren't in the MS.
M: C|
L: 1/8
K: G
BA |\
GABG FGAF | GABG E2GF | E2AB cAFA | GBdg ecAF |
GABG [FD][GF]AF | GABG D2GF | E2AB cAFA | G2B2 G2 :|
|: AG |\
Bdd^c d2AG | Bdd^c d2[dA][BG] | ^cdef gece | dfdc d2dc |
BcBA GBed | cBAG F2df | gfgd ecAF | G2B2 G2 :|
